images/logos/rainydays_logo_small.svg

<svg width="130" height="58" viewBox="0 0 130 58" fill="none" xmlns="http://www.w3.org/2000/svg">
<path d="M0.555603 49.3566V29.2632H5.19271C8.58572 29.2632 10.2822 31.2292 10.2822 35.1612C10.2822 36.3461 10.0981 37.353 9.73075 38.1811C9.36338 39.0092 8.71698 39.6766 7.79402 40.185L10.9039 49.3566H7.85015L5.16382 40.7774H3.43925V49.3566H0.555603ZM3.43925 31.9725V38.2371H5.07961C5.58815 38.2371 5.99349 38.1663 6.29564 38.0254C6.59697 37.8845 6.83308 37.6826 7.00231 37.4189C7.15339 37.1561 7.25658 36.8314 7.31355 36.445C7.37051 36.0594 7.39858 35.6128 7.39858 35.1044C7.39858 34.596 7.37051 34.1494 7.31355 33.7638C7.25658 33.3782 7.14348 33.0444 6.97425 32.7618C6.61596 32.2353 5.93736 31.9716 4.93844 31.9716H3.44007L3.43925 31.9725Z" fill="white"/>
<path d="M15.541 49.3566L20.0369 29.2632H22.4401L26.936 49.3566H24.0524L23.2045 45.039H19.2741L18.4262 49.3566H15.5426H15.541ZM22.6663 42.3298L21.2529 35.0492H21.196L19.7826 42.3298H22.6671H22.6663Z" fill="white"/>
<path d="M32.6752 49.3566V29.2632H35.5597V49.3566H32.6752Z" fill="white"/>
<path d="M42.4868 49.3566V29.2632H45.2574L49.6113 41.3699H49.6683V29.2632H52.5519V49.3566H49.8375L45.4266 37.278H45.3705V49.3566H42.486H42.4868Z" fill="white"/>
<path d="M62.0805 49.3566V40.8623L58.1219 29.2632H61.1757L63.4938 37.25H63.5508L65.8689 29.2632H68.9226L64.9641 40.8623V49.3566H62.0796H62.0805Z" fill="white"/>
<path d="M74.6057 49.3566V29.2632H78.8754C80.534 29.2632 81.7921 29.7148 82.6499 30.6179C83.5076 31.5209 83.9361 32.8006 83.9361 34.4559V43.8533C83.9361 45.7344 83.4787 47.1228 82.5648 48.016C81.6501 48.91 80.3358 49.3566 78.6204 49.3566H74.6057ZM77.4902 31.9725V46.6474H78.8193C79.63 46.6474 80.2046 46.4455 80.5439 46.041C80.8832 45.6364 81.0532 45.0019 81.0532 44.1359V34.4559C81.0532 33.6657 80.8931 33.0543 80.5728 32.6218C80.2516 32.1892 79.668 31.9725 78.8193 31.9725H77.4902Z" fill="white"/>
<path d="M89.2526 49.3566L93.7485 29.2632H96.1517L100.648 49.3566H97.7631L96.9153 45.039H92.9849L92.137 49.3566H89.2526ZM96.3779 42.3298L94.9645 35.0492H94.9084L93.4951 42.3298H96.3787H96.3779Z" fill="white"/>
<path d="M107.434 49.3566V40.8623L103.475 29.2632H106.529L108.847 37.25H108.903L111.221 29.2632H114.275L110.316 40.8623V49.3566H107.433H107.434Z" fill="white"/>
<path d="M129.289 35.0492H126.406V34.3999C126.406 33.7416 126.25 33.1722 125.939 32.6926C125.628 32.2131 125.105 31.9733 124.37 31.9733C123.974 31.9733 123.653 32.0491 123.409 32.1991C123.164 32.3499 122.966 32.5377 122.815 32.7635C122.664 33.0082 122.561 33.2859 122.504 33.5957C122.447 33.9055 122.419 34.231 122.419 34.5697C122.419 34.9643 122.433 35.2939 122.461 35.5576C122.489 35.8213 122.56 36.0561 122.673 36.2629C122.786 36.4706 122.951 36.6485 123.168 36.7993C123.384 36.9501 123.681 37.1009 124.059 37.2509L126.264 38.1259C126.904 38.3706 127.423 38.6574 127.819 38.987C128.214 39.3166 128.526 39.6972 128.752 40.1298C128.959 40.5814 129.1 41.0939 129.176 41.6682C129.251 42.2425 129.289 42.8959 129.289 43.6292C129.289 44.4763 129.204 45.2615 129.035 45.9858C128.866 46.71 128.592 47.3264 128.215 47.8339C127.82 48.3613 127.3 48.7749 126.66 49.0757C126.018 49.3764 125.237 49.5272 124.313 49.5272C123.615 49.5272 122.965 49.4044 122.362 49.1605C121.759 48.9166 121.24 48.5772 120.807 48.1446C120.373 47.712 120.029 47.2086 119.775 46.6351C119.521 46.0616 119.393 45.4354 119.393 44.7581V43.6861H122.277V44.5892C122.277 45.1157 122.432 45.5911 122.743 46.0146C123.055 46.4381 123.577 46.6499 124.313 46.6499C124.802 46.6499 125.185 46.579 125.458 46.4381C125.731 46.2972 125.943 46.0954 126.094 45.8317C126.245 45.5688 126.335 45.2533 126.363 44.8866C126.391 44.5199 126.405 44.1104 126.405 43.6589C126.405 43.1324 126.386 42.6998 126.349 42.3611C126.311 42.0225 126.236 41.7497 126.122 41.5429C125.99 41.3361 125.816 41.1672 125.599 41.0345C125.382 40.9035 125.095 40.7618 124.736 40.611L122.672 39.7648C121.428 39.2564 120.595 38.584 120.17 37.7469C119.746 36.9097 119.534 35.8608 119.534 34.6001C119.534 33.8479 119.637 33.1326 119.845 32.4553C120.052 31.778 120.363 31.1955 120.778 30.7061C121.173 30.2174 121.678 29.8269 122.29 29.5352C122.903 29.2435 123.633 29.0977 124.481 29.0977C125.197 29.0977 125.852 29.2295 126.446 29.4923C127.04 29.756 127.553 30.1037 127.987 30.5363C128.854 31.4394 129.288 32.4743 129.288 33.6402V35.0509L129.289 35.0492Z" fill="white"/>
<path fill-rule="evenodd" clip-rule="evenodd" d="M21.2125 26.6035C23.2731 26.3349 26.4184 25.6658 26.6198 25.4985C39.8658 14.6287 25.067 31.4756 39.6148 19.5907C45.8221 14.5208 43.6022 16.6581 48.4787 20.8241C50.2025 22.2999 52.0674 18.4132 50.2941 15.306C50.2421 15.2162 53.9414 10.7981 53.9942 10.7626C53.9496 10.4248 55.4315 18.0564 55.3547 12.7715C55.3547 12.7336 56.423 9.05782 57.1016 9.01415C58.5686 8.92022 56.4824 7.60928 59.0036 6.03632C59.6104 5.65894 60.4475 3.74156 60.5953 3.36665C60.6201 3.40455 64.4514 6.83228 65.0334 7.53677C65.6658 8.29977 69.0258 9.07925 68.9011 11.7588C68.8945 11.9071 70.1386 14.5826 70.0594 16.0064C69.9925 17.225 73.3773 18.6777 74.6172 21.7412C76.2064 25.6674 74.188 17.9979 75.8135 20.4698C77.136 22.4853 78.0689 21.7561 80.2871 25.0272C80.5323 25.3856 81.144 26.2319 81.5279 26.6027H81.8491C81.8235 26.423 81.7145 26.0918 81.4875 25.5562C81.1193 24.6869 80.723 21.4635 80.2417 21.1669C79.4145 20.6602 76.2271 18.5928 76.2378 17.9262C76.2898 14.7292 80.4052 20.2062 79.3179 17.9493C77.2342 13.6251 78.1481 16.434 76.989 15.7987C77.5166 15.1338 77.1591 14.7045 77.3061 14.2999C78.1027 14.0354 78.2389 14.4186 76.393 12.6643C74.4298 10.8013 76.9857 9.94689 75.9183 7.59775C75.4618 6.5958 77.1343 6.69138 78.2637 7.60599C78.8432 8.0773 83.1055 9.94854 85.8984 11.0988C88.1133 13.6811 90.7328 15.4041 93.7568 16.2692C91.4502 14.9789 89.558 13.5411 88.0803 11.9533C88.186 11.9887 88.2627 12.0093 88.304 12.0175C91.5757 12.5531 90.7633 13.1513 92.7083 14.2373C93.9574 14.4062 96.5587 17.5093 100.114 18.4074C101.995 18.8845 103.937 22.2521 105.965 23.6965C109.807 26.4288 107.185 25.028 111.386 26.2516C111.799 26.3728 112.149 26.4889 112.458 26.6018H113.932C111.659 25.8248 110.238 23.8803 108.615 23.3191C105.418 22.2191 103.792 19.8411 101.725 17.5093C99.5422 15.0456 96.4431 15.3126 95.3105 13.944C94.532 13.0022 89.9824 10.5863 88.735 10.1784C88.7036 10.1496 88.6227 10.1323 88.5707 10.0969C88.4006 9.98232 88.3181 9.98232 88.1942 9.91393C87.9094 9.75161 87.8244 9.91805 87.5164 9.91146C87.4009 9.91146 87.0112 9.66591 86.9988 9.63213C86.965 9.61318 86.8139 9.55056 86.7924 9.53408C86.5984 9.37176 86.0891 9.01086 85.8488 8.98614C85.6779 8.96966 85.3758 8.76531 85.2511 8.72576C84.9193 8.617 84.8202 8.36898 84.3455 8.28823C83.974 8.22561 83.496 8.10284 83.1716 7.90674C83.1757 7.86719 79.2246 6.76471 79.01 6.70868C78.9712 6.70044 78.8804 6.66254 78.764 6.61063C77.9368 5.68284 76.5944 5.49332 75.5534 4.90995C75.0738 4.64298 73.175 5.654 72.5047 6.08741C72.153 6.31647 71.9648 6.31235 71.7344 6.50598C71.5933 6.62464 70.5853 7.06876 70.4226 6.92703C70.2806 6.80179 70.3739 6.84546 70.2311 6.81497C69.6425 6.68561 69.7696 7.02097 69.4848 7.06052C68.9771 7.12973 69.1934 7.20471 68.935 7.2937C68.5082 7.44614 68.7724 7.55243 68.3241 7.54419C67.9798 7.02756 67.0049 6.88336 66.5483 6.20194C66.4476 6.0495 65.594 5.28898 65.3207 5.28321C64.9765 5.27909 63.9957 4.27055 63.4459 4.08927C63.441 4.0868 62.8003 3.63691 62.7657 3.60808C62.7607 3.60396 62.2778 3.39137 62.149 3.27437C61.9756 3.11616 61.3532 2.86156 60.8694 2.73055C60.6572 2.60777 60.4442 2.50313 60.2428 2.45534C59.518 2.27818 59.442 1.86126 58.9194 2.09032C57.8669 2.5468 58.1013 2.35317 56.9728 3.08897C56.8663 3.07414 56.2777 3.19115 56.2199 3.24718C55.9186 3.53721 55.6965 3.87669 55.3605 3.8701C54.757 3.85939 54.9494 3.99122 54.265 4.34718C53.6863 4.6537 53.5715 4.87617 52.9383 5.13901C52.6576 5.25767 51.9939 5.88059 51.7132 5.85175C51.5448 5.95392 51.2641 5.72239 50.9331 6.23078C50.8728 6.32224 50.5005 6.31235 50.1538 6.74576C50.1397 6.76471 49.7847 6.93775 49.6873 7.03745C49.0896 7.64801 49.4116 7.2731 49.1416 7.42471C48.7619 7.64142 48.3598 7.87872 47.9553 8.03775C47.1529 8.34591 47.1867 8.57745 46.8004 8.80486C46.2885 9.10726 46.2555 9.28442 45.6 9.51101C45.2467 9.63625 44.086 10.5467 43.7029 10.616C43.3339 10.6786 41.9767 11.95 41.4434 12.1807C41.4013 12.2013 41.2733 12.2977 41.237 12.3306C40.4527 12.4246 40.1869 12.9602 39.5149 13.2807C39.2078 13.4265 39.1401 13.616 38.7612 13.7207C38.2229 13.8649 37.4436 14.6584 37.2199 14.7333C36.7667 14.8899 36.0319 15.5754 35.615 15.5359C35.6084 15.5334 34.3618 16.2338 34.3272 16.2841C34.2925 16.3318 34.2487 16.3483 34.2504 16.3945C33.7914 16.7529 34.0886 16.1234 33.2094 17.1632C32.6463 17.8282 31.1868 18.2739 30.258 19.3031C30.0516 19.5322 29.9633 18.9801 28.9413 20.5011C28.0332 21.8492 27.2118 21.677 26.0667 22.5891C25.2098 23.2705 24.6352 22.9764 23.3432 24.0063C22.4582 24.7108 21.4824 25.3148 20.5058 25.8339C20.1261 26.0382 19.8181 26.4758 19.4376 26.601H21.2125V26.6035Z" fill="white"/>
<path fill-rule="evenodd" clip-rule="evenodd" d="M126.901 55.6188C85.5591 56.7147 44.1355 56.7147 2.7887 55.6188C44.147 54.991 85.5401 54.991 126.901 55.6188Z" fill="white"/>
</svg>

<svg xmlns="http://www.w3.org/2000/svg" width="130" height="58" fill="#fff"><path d="M.556 49.357V29.263h4.637c3.393 0 5.089 1.966 5.089 5.898 0 1.185-.184 2.192-.551 3.02s-1.014 1.495-1.937 2.004l3.11 9.172H7.85l-2.686-8.579H3.439v8.579H.556zM3.44 31.973v6.265h1.64c.509 0 .914-.071 1.216-.212a1.65 1.65 0 0 0 .707-.606c.151-.263.254-.587.311-.974a9.28 9.28 0 0 0 .085-1.341 9.28 9.28 0 0 0-.085-1.341 2.702 2.702 0 0 0-.339-1.002c-.358-.526-1.037-.79-2.036-.79H3.44l-.001.001zm12.101 17.384 4.496-20.093h2.403l4.496 20.093h-2.884l-.848-4.318h-3.93l-.848 4.318H15.54zm7.125-7.027-1.413-7.281h-.057l-1.413 7.281h2.885-.001zm10.009 7.027V29.263h2.885v20.093h-2.885zm9.812 0V29.263h2.771l4.354 12.107h.057V29.263h2.884v20.093h-2.714l-4.411-12.079h-.056v12.079h-2.885.001zm19.594 0v-8.494l-3.959-11.599h3.054l2.318 7.987h.057l2.318-7.987h3.054l-3.959 11.599v8.494H62.08h.001zm12.525 0V29.263h4.27c1.659 0 2.917.452 3.775 1.355s1.286 2.183 1.286 3.838v9.397c0 1.881-.457 3.27-1.371 4.163s-2.229 1.341-3.944 1.341h-4.015zm2.885-17.384v14.675h1.329c.811 0 1.385-.202 1.725-.606s.509-1.039.509-1.905v-9.68c0-.79-.16-1.402-.48-1.834s-.905-.649-1.754-.649h-1.33zm11.762 17.384 4.496-20.093h2.403l4.496 20.093h-2.885l-.848-4.318h-3.93l-.848 4.318h-2.884zm7.125-7.027-1.413-7.281h-.056l-1.413 7.281h2.884-.001zm11.056 7.027v-8.494l-3.959-11.599h3.054l2.318 7.987h.056l2.318-7.987h3.054l-3.959 11.599v8.494h-2.883.001zm21.855-14.308h-2.883V34.4c0-.658-.156-1.228-.467-1.707s-.834-.719-1.569-.719c-.396 0-.717.076-.961.226a1.9 1.9 0 0 0-.594.564 2.393 2.393 0 0 0-.311.832 5.38 5.38 0 0 0-.085.974l.042.988c.028.264.099.498.212.705s.278.386.495.536.513.302.891.452l2.205.875c.64.245 1.159.532 1.555.861a3.71 3.71 0 0 1 .933 1.143c.207.452.348.964.424 1.538a15.27 15.27 0 0 1 .113 1.961c0 .847-.085 1.632-.254 2.357s-.443 1.341-.82 1.848c-.395.527-.915.941-1.555 1.242s-1.423.452-2.347.452a5.15 5.15 0 0 1-1.951-.367 4.624 4.624 0 0 1-1.555-1.016 4.93 4.93 0 0 1-1.032-1.509 4.588 4.588 0 0 1-.382-1.877v-1.072h2.884v.903a2.35 2.35 0 0 0 .466 1.425c.312.423.834.635 1.57.635.489 0 .872-.071 1.145-.212a1.52 1.52 0 0 0 .636-.606c.151-.263.241-.578.269-.945l.042-1.228-.056-1.298c-.038-.339-.113-.611-.227-.818a1.6 1.6 0 0 0-.523-.508 6.81 6.81 0 0 0-.863-.424l-2.064-.846c-1.244-.508-2.077-1.181-2.502-2.018s-.636-1.886-.636-3.147c0-.752.103-1.468.311-2.145s.518-1.26.933-1.749c.395-.489.9-.879 1.512-1.171s1.343-.437 2.191-.437a4.8 4.8 0 0 1 1.965.395 5.053 5.053 0 0 1 1.541 1.044c.867.903 1.301 1.938 1.301 3.104v1.411l.001-.002z"/><path fill-rule="evenodd" d="M21.213 26.604c2.061-.269 5.206-.938 5.407-1.105 13.246-10.87-1.553 5.977 12.995-5.908 6.207-5.07 3.987-2.933 8.864 1.233 1.724 1.476 3.589-2.411 1.815-5.518-.052-.09 3.647-4.508 3.7-4.543-.045-.338 1.437 7.294 1.361 2.009 0-.038 1.068-3.714 1.747-3.757 1.467-.094-.619-1.405 1.902-2.978.607-.377 1.444-2.295 1.592-2.67.025.038 3.856 3.466 4.438 4.17.632.763 3.992 1.542 3.868 4.222-.007.148 1.237 2.824 1.158 4.248-.067 1.219 3.318 2.671 4.558 5.735 1.589 3.926-.429-3.743 1.196-1.271 1.322 2.015 2.255 1.286 4.474 4.557.245.358.857 1.205 1.241 1.575h.321c-.026-.18-.135-.511-.362-1.046-.368-.869-.764-4.093-1.246-4.389-.827-.507-4.015-2.574-4.004-3.241.052-3.197 4.167 2.28 3.08.023-2.084-4.324-1.17-1.515-2.329-2.151.528-.665.17-1.094.317-1.499.797-.264.933.119-.913-1.636-1.963-1.863.593-2.717-.475-5.067-.457-1.002 1.216-.906 2.345.008.579.471 4.842 2.343 7.635 3.493 2.215 2.582 4.834 4.305 7.858 5.17-2.307-1.29-4.199-2.728-5.677-4.316a2.05 2.05 0 0 0 .224.064c3.272.536 2.459 1.134 4.404 2.22 1.249.169 3.85 3.272 7.406 4.17 1.881.477 3.823 3.845 5.851 5.289 3.842 2.732 1.22 1.331 5.421 2.555.413.121.763.237 1.072.35h1.474c-2.273-.777-3.694-2.722-5.317-3.283-3.197-1.1-4.823-3.478-6.89-5.81-2.183-2.464-5.282-2.197-6.414-3.565-.779-.942-5.328-3.358-6.576-3.766-.031-.029-.112-.046-.164-.082-.17-.115-.253-.115-.377-.183-.285-.162-.37.004-.678-.002-.116 0-.505-.246-.518-.279-.034-.019-.185-.082-.206-.098-.194-.162-.703-.523-.944-.548-.171-.016-.473-.221-.598-.26-.332-.109-.431-.357-.906-.438-.371-.063-.85-.185-1.174-.381.004-.04-3.947-1.142-4.162-1.198a1.774 1.774 0 0 1-.246-.098c-.827-.928-2.17-1.117-3.211-1.701-.48-.267-2.378.744-3.049 1.177-.352.229-.54.225-.77.419-.141.119-1.149.563-1.312.421-.142-.125-.049-.082-.192-.112-.589-.129-.462.206-.746.246-.508.069-.291.144-.55.233-.427.152-.163.259-.611.25-.344-.517-1.319-.661-1.776-1.342-.101-.152-.954-.913-1.228-.919-.344-.004-1.325-1.013-1.875-1.194a52.92 52.92 0 0 1-.68-.481c-.005-.004-.488-.217-.617-.334-.173-.158-.796-.413-1.28-.544a2.424 2.424 0 0 0-.627-.275c-.725-.177-.801-.594-1.323-.365-1.053.456-.818.263-1.947.999-.106-.015-.695.102-.753.158-.301.29-.523.63-.859.623-.604-.011-.411.121-1.096.477-.579.307-.694.529-1.327.792-.281.119-.944.742-1.225.713-.168.102-.449-.129-.78.379-.06.091-.433.082-.779.515-.014.019-.369.192-.466.292-.598.611-.276.236-.546.387-.38.217-.782.454-1.186.613-.802.308-.769.54-1.155.767-.512.302-.545.48-1.2.706-.353.125-1.514 1.036-1.897 1.105-.369.063-1.726 1.334-2.26 1.565a1.64 1.64 0 0 0-.206.15c-.784.094-1.05.63-1.722.95-.307.146-.375.335-.754.44-.538.144-1.318.938-1.541 1.013-.453.157-1.188.842-1.605.803-.007-.002-1.253.698-1.288.748s-.078.064-.077.11c-.459.358-.162-.271-1.041.769-.563.665-2.023 1.111-2.951 2.14-.206.229-.295-.323-1.317 1.198-.908 1.348-1.729 1.176-2.875 2.088-.857.681-1.431.387-2.724 1.417-.885.704-1.861 1.309-2.837 1.828-.38.204-.688.642-1.068.767h1.775v.003zm105.688 29.015a2343.06 2343.06 0 0 1-124.112 0 4089.61 4089.61 0 0 1 124.112 0z"/></svg>
